X:92
T:Foxhunter's Reel, The
R:reel
H:Also played in A, see #776
D:Arcady: Many Happy Returns.
Z:id:hn-reel-92
M:C|
K:G
d2BG dGBG|dGBG AGEG|d2BG dGBG|AcBG AGEG:|
|:~D3B BAGE|DGBG AGEG|~D3B BAGB|AcBG AGEG:|
|:gedB GABd|gdBd eaaf|gedB GABG|ABcd eA~A2:|
|:dggf ~g3e|dggd egdB|dggf ~g3d|egdB AGAB:|
|:G2BG dGBA|GBBG AGAB|G2BG dGBd|egdB AGAB:|
<end>
<start>
